editor/icons/Ungroup.svg

<svg height="16" viewBox="0 0 16 16" width="16" xmlns="http://www.w3.org/2000/svg"><path d="m7 1v6h-6v8h8v-6h6v-8zm2 2h4v4h-4z" fill="#e0e0e0" fill-opacity=".4"/><path d="m7 1v2h2v-2zm6 0v2h2v-2zm-12 6v2h2v-2zm6 0v2h2v-2zm6 0v2h2v-2zm-12 6v2h2v-2zm6 0v2h2v-2z" fill="#fff"/></svg>

<svg height="16" viewBox="0 0 16 16" width="16" xmlns="http://www.w3.org/2000/svg"><path d="M7 1v6H1v8h8V9h6V1zm2 2h4v4H9z" fill="#e0e0e0" fill-opacity=".4"/><path d="M7 1v2h2V1H7zm6 0v2h2V1h-2zM1 7v2h2V7H1zm6 0v2h2V7H7zm6 0v2h2V7h-2zM1 13v2h2v-2H1zm6 0v2h2v-2H7z" fill="#fff"/></svg>
